_inc/systems/logos/zxnext.svg

<?xml version="1.0" encoding="utf-8"?>
<svg width="100%" height="100%" version="1.1" style="fill-rule:evenodd;clip-rule:evenodd;stroke-linejoin:round;stroke-miterlimit:2;" viewBox="0 0 492.9 108.4" xmlns="http://www.w3.org/2000/svg">
  <path d="M 405.644 56.02 C 405.644 60.462 402.044 64.062 397.603 64.062 C 393.162 64.062 389.56 60.462 389.56 56.02 L 389.56 28.139 C 389.56 23.698 393.162 20.098 397.603 20.098 C 402.044 20.098 405.644 23.698 405.644 28.139 L 405.644 56.02 Z" style="fill:white;fill-rule:nonzero;"/>
  <path d="M 295.873 56.02 C 295.873 60.462 292.273 64.062 287.831 64.062 C 283.39 64.062 279.789 60.462 279.789 56.02 L 279.789 12.098 C 279.789 7.657 283.39 4.057 287.831 4.057 C 292.273 4.057 295.873 7.657 295.873 12.098 L 295.873 56.02 Z" style="fill:white;fill-rule:nonzero;"/>
  <path d="M 405.644 8.041 C 405.644 12.483 402.044 16.083 397.603 16.083 C 393.162 16.083 389.56 12.483 389.56 8.041 C 389.56 3.6 393.162 0 397.603 0 C 402.044 0 405.644 3.6 405.644 8.041" style="fill:white;fill-rule:nonzero;"/>
  <path d="M 101.165 56.02 C 101.165 60.462 97.565 64.062 93.124 64.062 C 88.683 64.062 85.082 60.462 85.082 56.02 L 85.082 28.139 C 85.082 23.698 88.683 20.098 93.124 20.098 C 97.565 20.098 101.165 23.698 101.165 28.139 L 101.165 56.02 Z" style="fill:white;fill-rule:nonzero;"/>
  <path d="M 101.165 8.041 C 101.165 12.483 97.565 16.083 93.124 16.083 C 88.683 16.083 85.082 12.483 85.082 8.041 C 85.082 3.6 88.683 0 93.124 0 C 97.565 0 101.165 3.6 101.165 8.041" style="fill:white;fill-rule:nonzero;"/>
  <path d="M 412.684 34.121 C 412.684 26.325 419.003 20.041 426.8 20.041 L 486.949 20.043 C 490.255 20.043 492.933 22.825 492.933 26.129 C 492.933 29.433 490.255 32.085 486.949 32.085 L 434.994 32.083 C 431.571 32.083 428.755 34.858 428.755 38.282 L 428.763 55.999 C 428.763 60.441 425.162 64.041 420.72 64.041 C 416.279 64.041 412.679 60.441 412.679 55.999 L 412.684 34.121 Z" style="fill:white;fill-rule:nonzero;"/>
  <path d="M 382.728 34.168 C 382.728 26.372 376.41 20.052 368.612 20.052 L 308.957 20.057 C 305.629 20.057 302.93 22.756 302.93 26.085 C 302.93 29.413 305.606 32.089 308.934 32.089 L 364.7 32.074 C 365.81 32.074 366.71 32.974 366.71 34.085 C 366.71 35.196 365.81 36.094 364.7 36.094 L 316.874 36.086 C 309.15 36.086 302.889 42.29 302.889 50.014 C 302.889 57.739 309.15 63.979 316.874 63.979 L 368.612 63.973 C 376.41 63.973 382.728 57.651 382.728 49.857 L 382.728 34.168 Z M 320.867 52.091 C 319.758 52.091 318.859 51.191 318.859 50.082 C 318.859 48.971 319.758 48.071 320.867 48.071 L 364.7 48.071 C 365.81 48.071 366.71 48.971 366.71 50.082 C 366.71 51.191 365.81 52.091 364.7 52.091 L 320.867 52.091 Z" style="fill:white;fill-rule:nonzero;"/>
  <path d="M 266.609 51.873 C 269.937 51.873 272.649 54.589 272.649 57.918 C 272.649 61.246 269.973 63.922 266.645 63.922 L 214.29 63.93 C 202.158 63.93 192.324 54.095 192.324 41.963 C 192.324 29.833 202.158 20.041 214.29 20.041 L 266.623 20.041 C 269.951 20.041 272.649 22.755 272.649 26.085 C 272.649 29.413 269.973 32.083 266.645 32.083 L 218.281 32.081 C 212.809 32.081 208.373 36.482 208.373 41.955 C 208.373 47.427 212.809 51.869 218.281 51.869 L 266.609 51.873 Z" style="fill:white;fill-rule:nonzero;"/>
  <path d="M 121.252 20.052 C 113.456 20.052 107.136 26.372 107.136 34.168 L 107.158 56.021 C 107.158 60.462 110.758 64.062 115.2 64.062 C 119.641 64.062 123.241 60.462 123.241 56.021 L 123.248 38.17 C 123.248 34.746 126.022 31.972 129.446 31.972 L 165.086 31.972 C 168.509 31.972 171.284 34.746 171.284 38.17 L 171.29 56.021 C 171.29 60.462 174.89 64.062 179.333 64.062 C 183.774 64.062 187.374 60.462 187.374 56.021 L 187.396 34.168 C 187.396 26.372 181.077 20.052 173.28 20.052 L 121.252 20.052 Z" style="fill:white;fill-rule:nonzero;"/>
  <path d="M 13.987 20.06 C 6.263 20.06 0 26.262 0 33.986 C 0 41.712 6.263 47.951 13.987 47.951 L 62.189 47.937 C 63.299 47.937 64.2 48.837 64.2 49.947 C 64.2 51.058 63.299 51.958 62.189 51.958 L 6.056 51.958 C 2.727 51.958 0.015 54.63 0.015 57.959 C 0.015 61.287 2.691 63.963 6.019 63.963 L 66.317 63.979 C 74.041 63.979 80.302 57.739 80.302 50.014 C 80.302 42.29 74.041 36.088 66.317 36.088 L 17.936 36.094 C 16.827 36.094 15.927 35.196 15.927 34.085 C 15.927 32.974 16.827 32.074 17.936 32.074 L 74.257 32.089 C 77.585 32.089 80.261 29.413 80.261 26.085 C 80.261 22.756 77.562 20.058 74.234 20.058 L 13.987 20.06 Z" style="fill:white;"/>
  <path d="M 2.576 98.412 L 15.129 83.4 L 3.559 83.4 L 3.559 79.074 L 21.978 79.074 L 21.978 83.139 L 9.427 98.15 L 22.306 98.15 L 22.306 102.476 L 2.576 102.476 L 2.576 98.412 Z" style="fill:white;fill-rule:nonzero;"/>
  <path d="M 31.387 90.218 L 23.848 79.074 L 29.814 79.074 L 34.402 86.546 L 39.155 79.074 L 44.792 79.074 L 37.287 90.25 L 45.447 102.475 L 39.319 102.475 L 34.206 94.381 L 28.995 102.475 L 23.192 102.475 L 31.387 90.218 Z" style="fill:white;fill-rule:nonzero;"/>
  <path d="M 60.789 94.708 C 60.789 97.822 63.214 99.034 65.967 99.034 C 67.77 99.034 70.523 98.51 70.523 96.118 C 70.523 93.593 67.016 93.168 63.575 92.249 C 60.101 91.333 56.594 89.989 56.594 85.596 C 56.594 80.81 61.117 78.516 65.345 78.516 C 70.228 78.516 74.719 80.648 74.719 86.056 L 69.736 86.056 C 69.572 83.236 67.574 82.514 65.115 82.514 C 63.477 82.514 61.575 83.204 61.575 85.17 C 61.575 86.973 62.69 87.202 68.556 88.71 C 70.26 89.136 75.506 90.218 75.506 95.528 C 75.506 99.821 72.128 103.033 65.771 103.033 C 60.593 103.033 55.742 100.477 55.807 94.708 L 60.789 94.708 Z" style="fill:white;fill-rule:nonzero;"/>
  <path d="M 90.78 94.053 C 90.78 91.365 89.697 88.58 86.716 88.58 C 83.668 88.58 82.684 91.3 82.684 94.053 C 82.684 96.805 83.733 99.428 86.748 99.428 C 89.796 99.428 90.78 96.805 90.78 94.053 M 78.195 85.53 L 82.619 85.53 L 82.619 87.693 L 82.684 87.693 C 83.799 85.892 85.635 85.073 87.732 85.073 C 93.041 85.073 95.433 89.365 95.433 94.185 C 95.433 98.706 92.943 102.934 87.993 102.934 C 85.961 102.934 84.028 102.05 82.913 100.378 L 82.848 100.378 L 82.848 108.441 L 78.195 108.441 L 78.195 85.53 Z" style="fill:white;fill-rule:nonzero;"/>
  <path d="M 109.857 92.184 C 109.432 89.824 108.414 88.579 106.153 88.579 C 103.204 88.579 102.352 90.874 102.286 92.184 L 109.857 92.184 Z M 102.286 95.135 C 102.417 98.084 103.858 99.428 106.448 99.428 C 108.317 99.428 109.825 98.28 110.12 97.231 L 114.217 97.231 C 112.905 101.23 110.12 102.935 106.285 102.935 C 100.942 102.935 97.632 99.264 97.632 94.02 C 97.632 88.939 101.138 85.072 106.285 85.072 C 112.053 85.072 114.838 89.923 114.512 95.135 L 102.286 95.135 Z" style="fill:white;fill-rule:nonzero;"/>
  <path d="M 129.196 91.496 C 128.9 89.594 127.688 88.578 125.753 88.578 C 122.772 88.578 121.788 91.594 121.788 94.085 C 121.788 96.512 122.738 99.428 125.656 99.428 C 127.818 99.428 129.064 98.052 129.36 95.986 L 133.849 95.986 C 133.26 100.477 130.146 102.934 125.689 102.934 C 120.576 102.934 117.134 99.33 117.134 94.249 C 117.134 88.972 120.28 85.073 125.786 85.073 C 129.785 85.073 133.456 87.17 133.752 91.496 L 129.196 91.496 Z" style="fill:white;fill-rule:nonzero;"/>
  <path d="M 142.634 85.531 L 146.044 85.531 L 146.044 88.644 L 142.634 88.644 L 142.634 97.035 C 142.634 98.609 143.028 99.003 144.601 99.003 C 145.093 99.003 145.552 98.969 146.044 98.871 L 146.044 102.508 C 145.257 102.64 144.241 102.672 143.324 102.672 C 140.472 102.672 137.981 102.017 137.981 98.641 L 137.981 88.644 L 135.162 88.644 L 135.162 85.531 L 137.981 85.531 L 137.981 80.449 L 142.634 80.449 L 142.634 85.531 Z" style="fill:white;fill-rule:nonzero;"/>
  <path d="M 148.601 85.531 L 153.025 85.531 L 153.025 88.677 L 153.092 88.677 C 153.944 86.547 156.238 85.072 158.498 85.072 C 158.826 85.072 159.22 85.137 159.516 85.236 L 159.516 89.561 C 159.089 89.464 158.401 89.397 157.844 89.397 C 154.434 89.397 153.254 91.856 153.254 94.839 L 153.254 102.476 L 148.601 102.476 L 148.601 85.531 Z" style="fill:white;fill-rule:nonzero;"/>
  <path d="M 177.542 102.476 L 173.118 102.476 L 173.118 100.116 L 173.02 100.116 C 171.84 102.017 169.808 102.935 167.841 102.935 C 162.892 102.935 161.646 100.149 161.646 95.953 L 161.646 85.531 L 166.3 85.531 L 166.3 95.101 C 166.3 97.888 167.12 99.264 169.284 99.264 C 171.806 99.264 172.888 97.855 172.888 94.413 L 172.888 85.531 L 177.542 85.531 L 177.542 102.476 Z" style="fill:white;fill-rule:nonzero;"/>
  <path d="M 181.41 85.531 L 185.802 85.531 L 185.802 87.825 L 185.868 87.825 C 187.08 86.088 188.85 85.072 191.046 85.072 C 193.177 85.072 195.077 85.859 195.996 87.892 C 196.978 86.416 198.749 85.072 201.109 85.072 C 204.714 85.072 207.303 86.744 207.303 91.136 L 207.303 102.476 L 202.649 102.476 L 202.649 92.873 C 202.649 90.612 202.453 88.743 199.798 88.743 C 197.176 88.743 196.684 90.905 196.684 93.036 L 196.684 102.476 L 192.029 102.476 L 192.029 92.971 C 192.029 91.004 192.161 88.743 189.212 88.743 C 188.293 88.743 186.065 89.333 186.065 92.643 L 186.065 102.476 L 181.41 102.476 L 181.41 85.531 Z" style="fill:white;fill-rule:nonzero;"/>
  <path d="M 221.105 79.074 L 226.217 79.074 L 235.985 94.774 L 236.05 94.774 L 236.05 79.074 L 240.869 79.074 L 240.869 102.476 L 235.722 102.476 L 225.989 86.81 L 225.922 86.81 L 225.922 102.476 L 221.105 102.476 L 221.105 79.074 Z" style="fill:white;fill-rule:nonzero;"/>
  <path d="M 256.637 92.184 C 256.211 89.824 255.195 88.579 252.934 88.579 C 249.983 88.579 249.131 90.874 249.065 92.184 L 256.637 92.184 Z M 249.065 95.135 C 249.197 98.084 250.639 99.428 253.227 99.428 C 255.097 99.428 256.605 98.28 256.898 97.231 L 260.997 97.231 C 259.685 101.23 256.898 102.935 253.063 102.935 C 247.721 102.935 244.411 99.264 244.411 94.02 C 244.411 88.939 247.918 85.072 253.063 85.072 C 258.833 85.072 261.618 89.923 261.291 95.135 L 249.065 95.135 Z" style="fill:white;fill-rule:nonzero;"/>
  <path d="M 268.699 93.561 L 263.127 85.531 L 268.438 85.531 L 271.419 89.955 L 274.37 85.531 L 279.515 85.531 L 273.943 93.463 L 280.203 102.477 L 274.894 102.477 L 271.354 97.134 L 267.814 102.477 L 262.603 102.477 L 268.699 93.561 Z" style="fill:white;fill-rule:nonzero;"/>
  <path d="M 288.202 85.531 L 291.611 85.531 L 291.611 88.644 L 288.202 88.644 L 288.202 97.035 C 288.202 98.609 288.595 99.003 290.17 99.003 C 290.661 99.003 291.119 98.969 291.611 98.871 L 291.611 102.508 C 290.825 102.64 289.809 102.672 288.891 102.672 C 286.039 102.672 283.549 102.017 283.549 98.641 L 283.549 88.644 L 280.73 88.644 L 280.73 85.531 L 283.549 85.531 L 283.549 80.449 L 288.202 80.449 L 288.202 85.531 Z" style="fill:white;fill-rule:nonzero;"/>
</svg>

<svg xmlns="http://www.w3.org/2000/svg" style="fill-rule:evenodd;clip-rule:evenodd;stroke-linejoin:round;stroke-miterlimit:2" viewBox="0 0 492.9 108.4"><path d="M405.64 56.02a8.04 8.04 0 1 1-16.08 0V28.14a8.04 8.04 0 0 1 16.08 0zm-109.77 0a8.04 8.04 0 1 1-16.08 0V12.1a8.04 8.04 0 0 1 16.08 0zM405.64 8.04a8.04 8.04 0 1 1-16.08 0 8.04 8.04 0 0 1 16.08 0M101.17 56.02a8.04 8.04 0 1 1-16.09 0V28.14a8.04 8.04 0 0 1 16.09 0zm0-47.98a8.04 8.04 0 1 1-16.09 0 8.04 8.04 0 0 1 16.09 0m311.51 26.08c0-7.8 6.32-14.08 14.12-14.08h60.15c3.3 0 5.98 2.79 5.98 6.09s-2.68 5.96-5.98 5.96h-51.96a6.23 6.23 0 0 0-6.24 6.2l.01 17.7a8.04 8.04 0 0 1-16.08 0zm-29.95.05c0-7.8-6.32-14.12-14.12-14.12h-59.65a6.03 6.03 0 0 0-.03 12.04l55.77-.02a2.01 2.01 0 0 1 0 4.02h-47.83a13.94 13.94 0 1 0 0 27.89h51.74c7.8 0 14.12-6.33 14.12-14.12zm-61.86 17.92a2 2 0 0 1 0-4.02h43.83a2.01 2.01 0 0 1 0 4.02zm-54.27-.22a6.05 6.05 0 0 1 6.05 6.05c0 3.33-2.68 6-6 6l-52.36.01a21.97 21.97 0 0 1-21.97-21.97 21.93 21.93 0 0 1 21.97-21.92h52.33a6.04 6.04 0 0 1 6.03 6.05c0 3.32-2.68 6-6 6h-48.37c-5.47 0-9.9 4.4-9.9 9.86a9.9 9.9 0 0 0 9.9 9.92zM121.25 20.05c-7.8 0-14.11 6.32-14.11 14.12l.02 21.85a8.04 8.04 0 0 0 16.08 0V38.17a6.2 6.2 0 0 1 6.2-6.2h35.65a6.2 6.2 0 0 1 6.2 6.2v17.85a8.04 8.04 0 0 0 16.08 0l.03-21.85c0-7.8-6.32-14.12-14.12-14.12z" style="fill:#fff;fill-rule:nonzero"/><path d="M13.99 20.06a13.94 13.94 0 1 0 0 27.9l48.2-.02a2.01 2.01 0 1 1 0 4.02H6.06a6 6 0 0 0-6.04 6c0 3.33 2.67 6 6 6l60.3.02c7.72 0 13.98-6.24 13.98-13.97 0-7.72-6.26-13.92-13.98-13.92H17.94a2 2 0 1 1 0-4.02l56.32.02c3.32 0 6-2.68 6-6 0-3.33-2.7-6.03-6.03-6.03z" style="fill:#fff"/><path d="M2.58 98.41 15.13 83.4H3.56v-4.33h18.42v4.07L9.43 98.15H22.3v4.33H2.58zm28.81-8.19-7.54-11.15h5.96l4.6 7.48 4.75-7.48h5.63l-7.5 11.18 8.16 12.22h-6.13l-5.11-8.09-5.21 8.1h-5.8zm29.4 4.48c0 3.12 2.42 4.33 5.18 4.33 1.8 0 4.55-.52 4.55-2.91 0-2.53-3.5-2.95-6.94-3.87-3.48-.92-6.99-2.26-6.99-6.65 0-4.79 4.53-7.08 8.75-7.08 4.89 0 9.38 2.13 9.38 7.54h-4.98c-.17-2.82-2.17-3.55-4.62-3.55-1.64 0-3.55.7-3.55 2.66 0 1.8 1.12 2.03 6.99 3.54 1.7.43 6.95 1.5 6.95 6.82 0 4.3-3.38 7.5-9.74 7.5-5.18 0-10.03-2.55-9.96-8.32zm29.99-.65c0-2.69-1.08-5.47-4.06-5.47-3.05 0-4.04 2.72-4.04 5.47 0 2.76 1.05 5.38 4.07 5.38 3.05 0 4.03-2.62 4.03-5.38m-12.59-8.52h4.43v2.16h.06c1.12-1.8 2.95-2.62 5.05-2.62 5.31 0 7.7 4.3 7.7 9.12 0 4.52-2.49 8.74-7.44 8.74a6 6 0 0 1-5.08-2.55h-.06v8.06h-4.66zm31.67 6.65c-.43-2.36-1.45-3.6-3.7-3.6-2.96 0-3.8 2.3-3.87 3.6zm-7.57 2.95c.13 2.95 1.57 4.3 4.16 4.3 1.87 0 3.38-1.15 3.67-2.2h4.1c-1.31 4-4.1 5.7-7.94 5.7-5.34 0-8.65-3.67-8.65-8.91 0-5.08 3.5-8.95 8.66-8.95 5.76 0 8.55 4.85 8.22 10.07zm26.91-3.63c-.3-1.9-1.51-2.92-3.45-2.92-2.98 0-3.96 3.01-3.96 5.5 0 2.43.95 5.35 3.87 5.35 2.16 0 3.4-1.38 3.7-3.44h4.49c-.59 4.49-3.7 6.94-8.16 6.94-5.11 0-8.56-3.6-8.56-8.68 0-5.28 3.15-9.18 8.66-9.18 4 0 7.67 2.1 7.96 6.43zm13.43-5.97h3.41v3.11h-3.4v8.4c0 1.57.39 1.96 1.96 1.96.5 0 .95-.03 1.44-.13v3.64c-.78.13-1.8.16-2.72.16-2.85 0-5.34-.65-5.34-4.03v-10h-2.82v-3.1h2.82v-5.1h4.65zm5.97 0h4.43v3.15h.06a6 6 0 0 1 5.4-3.6c.34 0 .73.06 1.03.16v4.32a9 9 0 0 0-1.68-.16c-3.4 0-4.59 2.46-4.59 5.44v7.64h-4.65zm28.94 16.95h-4.42v-2.36h-.1a6 6 0 0 1-5.18 2.81c-4.95 0-6.2-2.78-6.2-6.98V85.53h4.66v9.57c0 2.79.82 4.16 2.98 4.16 2.53 0 3.6-1.4 3.6-4.85v-8.88h4.66zm3.87-16.95h4.4v2.3h.06a6.1 6.1 0 0 1 5.18-2.76c2.13 0 4.03.79 4.95 2.82a6.2 6.2 0 0 1 5.1-2.82c3.61 0 6.2 1.67 6.2 6.07v11.34h-4.65v-9.6c0-2.27-.2-4.14-2.85-4.14-2.62 0-3.12 2.17-3.12 4.3v9.44h-4.65v-9.5c0-1.98.13-4.24-2.82-4.24-.92 0-3.15.6-3.15 3.9v9.84h-4.65zm39.69-6.46h5.12l9.77 15.7h.06v-15.7h4.82v23.4h-5.15L226 86.82h-.07v15.67h-4.81zm35.54 13.11c-.43-2.36-1.44-3.6-3.7-3.6-2.96 0-3.8 2.3-3.87 3.6zm-7.57 2.95c.13 2.95 1.57 4.3 4.16 4.3 1.87 0 3.38-1.15 3.67-2.2h4.1c-1.31 4-4.1 5.7-7.94 5.7-5.34 0-8.65-3.67-8.65-8.91 0-5.08 3.5-8.95 8.65-8.95 5.77 0 8.56 4.85 8.23 10.07zm19.63-1.57-5.57-8.03h5.3l2.99 4.42 2.95-4.42h5.14l-5.57 7.93 6.26 9.02h-5.3l-3.55-5.35-3.54 5.35h-5.2zm19.5-8.03h3.41v3.11h-3.4v8.4c0 1.57.39 1.96 1.96 1.96.5 0 .95-.03 1.44-.13v3.64c-.79.13-1.8.16-2.72.16-2.85 0-5.34-.65-5.34-4.03v-10h-2.82v-3.1h2.82v-5.1h4.65z" style="fill:#fff;fill-rule:nonzero"/></svg>
